X: 101
T: Morrison's
M: 6/8
L: 1/8
R: Jig
K: Edor
~E3 ~B3|EBE AFD|~E3 ~B3|dcB AFD|
~E3 ~B3|EBE AFD|GFG FGA|dAG FED :|
Bee fee|aee fee|Bee fee|fag fed|
Bee fee|aee fee|gfe d2A|BAG FED|
Bee fee|aee fee|Bee fee|faf def|
g3 gfe|def g2d|edc d2A|BAG FED||
